source/img/icons/email.svg

<svg width="21" height="20" viewBox="0 0 21 20" fill="none" xmlns="http://www.w3.org/2000/svg">
<path d="M18.0584 0H2.94568C1.59663 0 0.5 1.441 0.5 3.2137V16.7863C0.5 18.559 1.59663 20 2.94568 20H18.0543C19.4034 20 20.5 18.559 20.5 16.7863V3.21914C20.5041 1.44644 19.4075 0 18.0584 0ZM19.3868 16.7863C19.3868 17.7488 18.7909 18.5318 18.0584 18.5318H2.94568C2.21322 18.5318 1.61732 17.7488 1.61732 16.7863V3.21914C1.61732 2.25666 2.21322 1.47363 2.94568 1.47363H18.0543C18.7868 1.47363 19.3827 2.25666 19.3827 3.21914V16.7863H19.3868Z" fill="#00B2FF"/>
<path d="M13.1133 9.83144L18.0047 4.06744C18.2323 3.79555 18.253 3.33334 18.0461 3.02883C17.8392 2.72975 17.4874 2.70256 17.2557 2.97445L10.5104 10.9299L9.19446 9.38554C9.19032 9.38011 9.18618 9.37467 9.18618 9.36923C9.15721 9.33117 9.12824 9.29854 9.09514 9.26591L3.74029 2.96901C3.50855 2.69713 3.1568 2.72431 2.94989 3.02883C2.74298 3.33334 2.76367 3.79555 2.99541 4.06744L7.94471 9.88038L3.0161 15.9435C2.79264 16.2208 2.78022 16.683 2.99127 16.9821C3.103 17.1343 3.25198 17.2159 3.40096 17.2159C3.53752 17.2159 3.67408 17.1506 3.78167 17.0201L8.78477 10.87L10.1421 12.4633C10.2497 12.5884 10.3821 12.6482 10.5145 12.6482C10.647 12.6482 10.7835 12.5829 10.887 12.4579L12.2816 10.8157L17.2557 17.0256C17.3633 17.1615 17.504 17.2268 17.6405 17.2268C17.7895 17.2268 17.9344 17.1506 18.0461 16.9984C18.2571 16.7047 18.2489 16.2371 18.0254 15.9598L13.1133 9.83144Z" fill="#00B2FF"/>
</svg>

<svg width="21" height="20" fill="none" xmlns="http://www.w3.org/2000/svg"><path d="M18.058 0H2.946C1.596 0 .5 1.441.5 3.214v13.572C.5 18.56 1.597 20 2.946 20h15.108c1.35 0 2.446-1.441 2.446-3.214V3.22C20.504 1.446 19.407 0 18.058 0zm1.329 16.786c0 .963-.596 1.746-1.329 1.746H2.946c-.733 0-1.329-.783-1.329-1.746V3.22c0-.962.596-1.745 1.329-1.745h15.108c.733 0 1.329.783 1.329 1.745v13.567h.004z" fill="#00B2FF"/><path d="M13.113 9.831l4.892-5.764c.227-.271.248-.734.041-1.038-.207-.3-.559-.326-.79-.055L10.51 10.93 9.194 9.386c-.004-.006-.008-.011-.008-.017a.946.946 0 00-.09-.103L3.74 2.969c-.231-.272-.583-.245-.79.06-.207.304-.186.767.045 1.038l4.95 5.813-4.929 6.063c-.223.278-.236.74-.025 1.04.112.151.261.233.41.233a.495.495 0 00.38-.196l5.004-6.15 1.357 1.593a.49.49 0 00.373.185.49.49 0 00.372-.19l1.395-1.642 4.974 6.21a.493.493 0 00.384.2.505.505 0 00.406-.228c.211-.293.203-.76-.02-1.038l-4.914-6.13z" fill="#00B2FF"/></svg>
